Yaru++/apps/scalable/goa-account-foursquare.svg

<svg height="256" width="256" xmlns="http://www.w3.org/2000/svg" xmlns:xlink="http://www.w3.org/1999/xlink">
  <linearGradient id="linearGradient4358" gradientUnits="userSpaceOnUse" x1="88" x2="488" y1="88" y2="488">
    <stop offset="0" stop-opacity=".588235"/>
    <stop offset="1" stop-opacity=".205556"/>
  </linearGradient>
  <filter id="filter4380" color-interpolation-filters="sRGB" height="1.088" width="1.106" x="-.05" y="-.04">
    <feGaussianBlur stdDeviation="8.48"/>
  </filter>
  <filter id="filter4346" color-interpolation-filters="sRGB" height="1.022" width="1.026" x="-.01" y="-.01">
    <feGaussianBlur stdDeviation="2.12"/>
  </filter>
  <path d="m141.84323 74c-70.59344 0-78.18921 7.250835-77.84323 77.98706v146.01294 146.01294c-.34598 70.73623 7.24979 77.98706 77.84323 77.98706h292.31354c70.59344 0 79.78033-7.27652 77.84323-77.98706v-146.01294-146.01294c0-70.737067-7.24979-77.98706-77.84323-77.98706z" filter="url(#filter4346)" opacity=".1" transform="matrix(.5 0 0 .5 -16.116488 -20.825537)"/>
  <path d="m141.84323 74c-70.59344 0-78.18921 7.250835-77.84323 77.98706v146.01294 146.01294c-.34598 70.73623 7.24979 77.98706 77.84323 77.98706h292.31354c70.59344 0 79.78033-7.27652 77.84323-77.98706v-146.01294-146.01294c0-70.737067-7.24979-77.98706-77.84323-77.98706z" fill="url(#linearGradient4358)" filter="url(#filter4380)" opacity=".3" transform="matrix(.5 0 0 .5 -16.116488 -20.825235)"/>
  <path d="m53.695112 13.174464c-36.098811 0-39.983002 3.690159-39.80608 39.689839v74.310167 74.31016c-.176922 35.99969 3.707269 39.68984 39.80608 39.68984h148.387318c36.09881 0 40.77464-3.70276 39.80608-39.68984v-74.31016-74.310167c0-36.00011-3.70727-39.689839-39.80608-39.689839z" opacity=".2"/>
  <path d="m200.95649 15.174464c35.29673 0 39.09461 3.625419 38.92162 38.993529v73.006477 73.00647c.17299 35.36812-3.62489 38.99353-38.92162 38.99353h-146.156758c-35.296716 0-38.921616-3.625-38.921616-38.99353v-73.00647-73.006477c0-35.36853 3.6249-38.993529 38.921616-38.993529z" fill="#25b2ee"/>
  <path d="m54.805392 15.174464c-35.296728 0-39.09487 3.626029-38.92188 38.994139v2c-.17299-35.36811 3.625152-38.99414 38.92188-38.99414h146.156238c35.29673 0 38.92188 3.62561 38.92188 38.99414v-2c0-35.36853-3.62515-38.994139-38.92188-38.994139z" fill="#fff" opacity=".3"/>
  <path d="m54.810792 239.17447c-35.296731 0-39.094875-3.62603-38.921885-38.99414v-2c-.17299 35.36811 3.625154 38.99414 38.921885 38.99414h146.156238c35.29673 0 38.92188-3.62561 38.92188-38.99414v2c0 35.36853-3.62515 38.99414-38.92188 38.99414z" opacity=".2"/>
  <g clip-rule="evenodd" enable-background="new" fill-rule="evenodd" image-rendering="optimizeQuality" shape-rendering="geometricPrecision" transform="matrix(.73906264353 0 0 .73906264353 93.6800498978 -1302.70787714461)">
    <g fill="#196fba">
      <path d="m50.775117 1900.8169c0 29.4076-23.8418 53.2488-53.25088 53.2488-29.40717 0-53.24868-23.8412-53.24868-53.2488 0-29.4093 23.84136-53.2509 53.24868-53.2509 29.40952 0 53.25059 23.8415 53.25088 53.2509z"/>
      <path d="m1104 1182.72-144.96-276.48-195.36 215.04 312.56 302.08 604.4-527.36v-353.28z" transform="matrix(.14648437 0 0 .14648437 -102.97488 1779.3154)"/>
      <path d="m139.45237 1855.4263-.28011.3103v.0007l-44.421533 49.303-34.22491-34.2249-70.17387 82.5274 70.17387 70.4727 75.750003-77.2506-12.40453-12.4042 24.40488-21.2941v-67.2338l-7.76414 8.6173-1.05936 1.1761zm-37.53282 56.7831 14.77515 14.7751c-4.92505-4.925-9.8501-9.8501-14.77515-14.7751z"/>
    </g>
    <path d="m1684.48 895.997v-353.281l-564.8074 641.0743-176.9506-277.5483-198.719 215.038 375.267 323.5326z" fill="#fff" transform="matrix(.14648437 0 0 .14648437 -103.53738 1779.3154)"/>
    <path d="m46.275117 1900.4413c0 26.5087-21.49014 47.9992-48.00029 47.9992-26.50913 0-47.99956-21.4904-47.99956-47.9992 0-26.5103 21.49043-48.0006 47.99956-48.0006 26.51015 0 48.00029 21.4903 48.00029 48.0006z" fill="#8c508c"/>
    <path d="m9.1596369 1861.0362c12.1057301 7.0962 20.2401901 20.2338 20.2401901 35.2795 0 22.5747-18.3 40.8747-40.87471 40.8747-3.23102 0-6.37-.3869-9.38458-1.0957 6.05788 3.5515 13.1053999 5.5956 20.6345199 5.5956 22.5750001 0 40.8745601-18.3 40.8745601-40.8747.00029-19.3434-13.4407-35.5374-31.4898901-39.7793z" fill="#793c7c"/>
  </g>
</svg>

<svg xmlns="http://www.w3.org/2000/svg" xmlns:xlink="http://www.w3.org/1999/xlink" width="256" height="256" version="1.0">
 <defs>
  <linearGradient id="a">
   <stop id="stop2" offset="0" stop-color="#68676b"/>
   <stop id="stop4" offset=".8" stop-color="#424048"/>
   <stop id="stop6" offset="1" stop-color="#241f31"/>
  </linearGradient>
  <radialGradient id="d" cx="279.422" cy="446.483" r="224" fx="279.422" fy="446.483" gradientTransform="matrix(1.34416,6e-4,-6.2e-4,1.38763,-121.22,-718.103)" gradientUnits="userSpaceOnUse" xlink:href="#a"/>
  <linearGradient id="e" x1="43.844" x2="-60" y1="234" y2="234" gradientTransform="matrix(1.0015,0,0,0.99993,72.09,56.015)" gradientUnits="userSpaceOnUse" xlink:href="#b"/>
  <linearGradient id="b">
   <stop id="stop11" offset="0" stop-color="#d5d3cf"/>
   <stop id="stop13" offset=".038" stop-color="#e3e2df"/>
   <stop id="stop15" offset=".077" stop-color="#c0bfbc"/>
   <stop id="stop17" offset=".923" stop-color="#c0bfbc"/>
   <stop id="stop19" offset=".962" stop-color="#e3e2df"/>
   <stop id="stop21" offset="1" stop-color="#d5d3cf"/>
  </linearGradient>
  <linearGradient id="linearGradient1007" x1="160.305" x2="161.33" y1="240.139" y2="135.579" gradientTransform="matrix(0.54625232,0,0,0.54625232,-6.0941965,-68.413544)" gradientUnits="userSpaceOnUse" xlink:href="#linearGradient1018"/>
  <linearGradient id="linearGradient1018">
   <stop id="stop2-3" offset="0" style="stop-color:#37a6e6"/>
   <stop id="stop4-6" offset="1" style="stop-color:#1a7fd4"/>
  </linearGradient>
  <linearGradient id="linearGradient1108" x1="296" x2="296" y1="-212" y2="202.4" gradientUnits="userSpaceOnUse" xlink:href="#linearGradient1013"/>
  <linearGradient id="linearGradient1013">
   <stop id="stop1005" offset="0" style="stop-color:#ffffff"/>
   <stop style="stop-color:#ffffff;stop-opacity:0.09803922" id="stop1007" offset=".135"/>
   <stop style="stop-color:#ffffff;stop-opacity:0" id="stop1009" offset="1"/>
  </linearGradient>
  <clipPath id="clipPath1082-3" clipPathUnits="userSpaceOnUse">
   <path d="M 361.9375,-212 C 507.2348,-212 528,-191.28677 528,-46.125 V 70.125 C 528,215.28618 507.2348,236 361.9375,236 H 214.0625 C 68.7652,236 48,215.28618 48,70.125 V -46.125 C 48,-191.28677 68.7652,-212 214.0625,-212 Z" style="fill:#8c59d9"/>
  </clipPath>
  <linearGradient id="linearGradient4358" x1="88" x2="488" y1="88" y2="488" gradientUnits="userSpaceOnUse" xlink:href="#linearGradient4360"/>
  <linearGradient id="linearGradient4360">
   <stop id="stop4362" offset="0" style="stop-color:#000000;stop-opacity:0.58823532"/>
   <stop id="stop4366" offset="1" style="stop-color:#000000;stop-opacity:0.20555556"/>
  </linearGradient>
  <filter style="color-interpolation-filters:sRGB" id="filter4380" width="1.106" height="1.088" x="-.05" y="-.04">
   <feGaussianBlur id="feGaussianBlur4382" stdDeviation="8.48"/>
  </filter>
  <filter style="color-interpolation-filters:sRGB" id="filter4346" width="1.026" height="1.022" x="-.01" y="-.01">
   <feGaussianBlur id="feGaussianBlur4348" stdDeviation="2.12"/>
  </filter>
 </defs>
 <path style="opacity:0.1;filter:url(#filter4346)" d="M 141.84323,74 C 71.24979,74 63.65402,81.250835 64,151.98706 V 298 444.01294 C 63.65402,514.74917 71.24979,522 141.84323,522 H 434.15677 C 504.75021,522 513.9371,514.72348 512,444.01294 V 298 151.98706 C 512,81.249993 504.75021,74 434.15677,74 Z" transform="matrix(0.5,0,0,0.5,-16.116488,-20.825537)"/>
 <path d="M 141.84323,74 C 71.24979,74 63.65402,81.250835 64,151.98706 V 298 444.01294 C 63.65402,514.74917 71.24979,522 141.84323,522 H 434.15677 C 504.75021,522 513.9371,514.72348 512,444.01294 V 298 151.98706 C 512,81.249993 504.75021,74 434.15677,74 Z" transform="matrix(0.5,0,0,0.5,-16.116488,-20.825235)" style="opacity:0.3;fill:url(#linearGradient4358);filter:url(#filter4380)"/>
 <path style="opacity:0.2" d="m 53.695112,13.174464 c -36.098811,0 -39.983002,3.690159 -39.80608,39.689839 v 74.310167 74.31016 c -0.176922,35.99969 3.707269,39.68984 39.80608,39.68984 H 202.08243 c 36.09881,0 40.77464,-3.70276 39.80608,-39.68984 V 127.17447 52.864303 c 0,-36.00011 -3.70727,-39.689839 -39.80608,-39.689839 z"/>
 <path style="fill:#25b2ee" d="m 200.95649,15.174464 c 35.29673,0 39.09461,3.625419 38.92162,38.993529 v 73.006477 73.00647 c 0.17299,35.36812 -3.62489,38.99353 -38.92162,38.99353 H 54.799732 c -35.296716,0 -38.921616,-3.625 -38.921616,-38.99353 V 127.17447 54.167993 c 0,-35.36853 3.6249,-38.993529 38.921616,-38.993529 z"/>
 <path style="opacity:0.3;fill:#ffffff" d="m 54.805392,15.174464 c -35.296728,0 -39.09487,3.626029 -38.92188,38.994139 v 2 c -0.17299,-35.36811 3.625152,-38.99414 38.92188,-38.99414 H 200.96163 c 35.29673,0 38.92188,3.62561 38.92188,38.99414 v -2 c 0,-35.36853 -3.62515,-38.994139 -38.92188,-38.994139 z"/>
 <path style="opacity:0.2" d="m 54.810792,239.17447 c -35.296731,0 -39.094875,-3.62603 -38.921885,-38.99414 v -2 c -0.17299,35.36811 3.625154,38.99414 38.921885,38.99414 H 200.96703 c 35.29673,0 38.92188,-3.62561 38.92188,-38.99414 v 2 c 0,35.36853 -3.62515,38.99414 -38.92188,38.99414 z"/>
 <g transform="matrix(2.1538462,0,0,2.1538462,-296.42242,-359.0365)">
  <g style="clip-rule:evenodd;fill-rule:evenodd;image-rendering:optimizeQuality;shape-rendering:geometricPrecision;enable-background:new" transform="matrix(0.34313622,0,0,0.34313622,181.119,-438.13313)">
   <path style="clip-rule:evenodd;fill:#196fba;fill-rule:evenodd;image-rendering:optimizeQuality;shape-rendering:geometricPrecision" class="fil1" d="m 50.775117,1900.8169 c 0,29.4076 -23.8418,53.2488 -53.25088,53.2488 -29.40717,0 -53.24868,-23.8412 -53.24868,-53.2488 0,-29.4093 23.84136,-53.2509 53.24868,-53.2509 29.40952,0 53.25059,23.8415 53.25088,53.2509 z"/>
   <polygon style="clip-rule:evenodd;fill:#196fba;fill-rule:evenodd;image-rendering:optimizeQuality;shape-rendering:geometricPrecision" id="polygon32" class="fil1" points="1104 1182.72 959.04 906.24 763.68 1121.28 1076.24 1423.36 1680.64 896 1680.64 542.72" transform="matrix(0.14648437,0,0,0.14648437,-102.97488,1779.3154)"/>
   <path style="clip-rule:evenodd;fill:#196fba;fill-rule:evenodd;image-rendering:optimizeQuality;shape-rendering:geometricPrecision" class="fil1" d="m 139.45237,1855.4263 -0.28011,0.3103 v 7e-4 l -44.421533,49.303 -34.22491,-34.2249 -70.17387,82.5274 70.17387,70.4727 75.750003,-77.2506 -12.40453,-12.4042 24.40488,-21.2941 v -67.2338 l -7.76414,8.6173 -1.05936,1.1761 z m -37.53282,56.7831 14.77515,14.7751 c -4.92505,-4.925 -9.8501,-9.8501 -14.77515,-14.7751 z"/>
   <path style="clip-rule:evenodd;fill:#ffffff;fill-rule:evenodd;image-rendering:optimizeQuality;shape-rendering:geometricPrecision" d="M 1684.48,895.997 V 542.716 L 1119.6726,1183.7903 942.722,906.242 744.003,1121.28 1119.27,1444.8126 Z" transform="matrix(0.14648437,0,0,0.14648437,-103.53738,1779.3154)"/>
   <path style="clip-rule:evenodd;fill:#8c508c;fill-rule:evenodd;image-rendering:optimizeQuality;shape-rendering:geometricPrecision" class="fil3" d="m 46.275117,1900.4413 c 0,26.5087 -21.49014,47.9992 -48.00029,47.9992 -26.50913,0 -47.99956,-21.4904 -47.99956,-47.9992 0,-26.5103 21.49043,-48.0006 47.99956,-48.0006 26.51015,0 48.00029,21.4903 48.00029,48.0006 z"/>
   <path style="clip-rule:evenodd;fill:#793c7c;fill-rule:evenodd;image-rendering:optimizeQuality;shape-rendering:geometricPrecision" class="fil4" d="m 9.1596369,1861.0362 c 12.1057301,7.0962 20.2401901,20.2338 20.2401901,35.2795 0,22.5747 -18.3,40.8747 -40.87471,40.8747 -3.23102,0 -6.37,-0.3869 -9.38458,-1.0957 6.05788,3.5515 13.1053999,5.5956 20.6345199,5.5956 22.5750001,0 40.8745601,-18.3 40.8745601,-40.8747 2.9e-4,-19.3434 -13.4407,-35.5374 -31.4898901,-39.7793 z"/>
  </g>
 </g>
</svg>
